X: 58
T:New Bridge of Edinburgh. BF11.58
M:4/4
Q:180
C:Browne A hand
S:MS11,c1800.,Browne Coll.,Lakes
R:Reel
O:England
A:Lakes
Z:vmp.Chris Partington
K:D
f|d2AG FEDF|Eeed cBAc|dABG FDAF|DFeg fd "cr"d:|!
f|defg abaf|abaf beef|defg abaf|geag fddf|!
defg abaf|abaf beef|d3f (ef/g/) (fg/a/)|(ga/b/) (ef/g/) fd d|]
